src/4-icons/hand-over-money.svg

<svg width="260" height="260" viewBox="0 0 260 260" fill="none" xmlns="http://www.w3.org/2000/svg">
<path d="M197.624 194.155L217.107 250.314" stroke="black" stroke-width="8" stroke-linecap="round" stroke-linejoin="round"/>
<path d="M93.8738 106.399L83.7877 67.9739C83.3895 66.4536 82.6812 65.0321 81.7072 63.7987C80.7332 62.5653 79.5146 61.5468 78.128 60.807C76.7414 60.0672 75.2168 59.6223 73.6499 59.5001C72.0831 59.3779 70.5079 59.5811 69.0234 60.097V60.097C66.36 61.0192 64.1329 62.8957 62.7723 65.3641C61.4116 67.8324 61.014 70.7174 61.6562 73.4618C66.4844 94.1139 77.3102 140.046 79.2994 145.774C86.0568 165.257 96.9426 205.061 123.652 217.406L132.869 250.394" stroke="black" stroke-width="8" stroke-linecap="round" stroke-linejoin="round"/>
<path d="M121.593 105.689L109.798 69.7032L100.451 41.1642C99.9779 39.717 99.2209 38.3786 98.2245 37.2271C97.2281 36.0756 96.0123 35.1341 94.6481 34.4576C93.284 33.7811 91.7987 33.3831 90.279 33.2868C88.7593 33.1906 87.2357 33.398 85.797 33.897V33.897C83.0759 34.8442 80.8111 36.7812 79.4534 39.3225C78.0957 41.8639 77.7445 44.8232 78.4699 47.6117L87.7063 82.8682L96.0231 114.566" stroke="black" stroke-width="8" stroke-linecap="round" stroke-linejoin="round"/>
<path d="M144.504 88.8258L119.674 21.1218C118.565 18.107 116.318 15.648 113.414 14.2739C110.511 12.8998 107.184 12.7205 104.15 13.7746V13.7746C101.117 14.8282 98.619 17.031 97.1943 19.9084C95.7696 22.7859 95.5321 26.1078 96.5329 29.1587L110.308 71.2425L119.904 100.541" stroke="black" stroke-width="8" stroke-linecap="round" stroke-linejoin="round"/>
<path d="M171.934 83.9677L168.035 74.9711L146.284 25.0603C145.096 22.3287 142.919 20.1467 140.191 18.9511C137.463 17.7556 134.383 17.6347 131.569 18.6128V18.6128C130.086 19.1275 128.719 19.9325 127.55 20.981C126.381 22.0294 125.432 23.3003 124.759 24.7194C124.086 26.1385 123.703 27.6774 123.631 29.2462C123.56 30.8151 123.801 32.3825 124.342 33.857L136.068 65.8447L147.403 96.7528" stroke="black" stroke-width="8" stroke-linecap="round" stroke-linejoin="round"/>
<path d="M130.83 128.75L145.634 134.298" stroke="white" stroke-width="5" stroke-miterlimit="10"/>
<path d="M37.1255 93.624L51.9398 99.1719" stroke="white" stroke-width="5" stroke-miterlimit="10"/>
<path d="M73.4818 41.7039L58.6675 36.156" stroke="white" stroke-width="5" stroke-miterlimit="10"/>
<path d="M167.176 76.8306L152.372 71.2727" stroke="white" stroke-width="5" stroke-miterlimit="10"/>
<path d="M151.482 159.599C149.928 159.597 148.388 159.316 146.934 158.769L20.0624 111.217C17.005 110.067 14.502 107.793 13.0651 104.86C12.3224 103.374 11.8963 101.751 11.8137 100.092C11.7311 98.4332 11.9938 96.7753 12.5853 95.2234L41.1943 18.7828C42.1061 16.4388 43.7072 14.4264 45.7863 13.0112C47.8654 11.596 50.3248 10.8445 52.8398 10.8558C54.3902 10.8571 55.9276 11.1382 57.3781 11.6855L184.239 59.2372C187.321 60.3734 189.845 62.6542 191.287 65.6048C192.022 67.0891 192.444 68.7087 192.526 70.363C192.609 72.0174 192.35 73.671 191.766 75.2211L163.117 151.672C162.535 153.223 161.64 154.639 160.488 155.83C159.336 157.022 157.951 157.964 156.42 158.599C154.858 159.26 153.178 159.6 151.482 159.599Z" fill="white"/>
<path d="M52.8399 13.3548C54.0895 13.3586 55.3285 13.5854 56.4984 14.0245L183.37 61.5762C185.847 62.489 187.877 64.3222 189.037 66.6942C189.625 67.8735 189.963 69.1613 190.03 70.4771C190.097 71.7929 189.892 73.1084 189.427 74.3413L160.778 150.792C160.315 152.026 159.603 153.151 158.686 154.099C157.77 155.046 156.668 155.795 155.45 156.3C154.184 156.831 152.825 157.103 151.452 157.099C150.199 157.098 148.956 156.871 147.783 156.43L20.9921 108.878C18.5182 107.959 16.4901 106.128 15.3243 103.76C14.7365 102.579 14.3985 101.29 14.3314 99.9721C14.2644 98.6546 14.4696 97.3375 14.9344 96.1029L43.5434 19.6623C44.265 17.7885 45.5422 16.18 47.2038 15.0526C48.8654 13.9252 50.832 13.3328 52.8399 13.3548ZM52.8399 8.35668C49.8133 8.34267 46.8541 9.24916 44.3546 10.9559C41.8552 12.6627 39.9338 15.089 38.8452 17.913L10.1963 94.3536C9.49207 96.2227 9.18013 98.2168 9.27988 100.212C9.37962 102.207 9.88891 104.16 10.776 105.949C12.5019 109.467 15.5105 112.189 19.1828 113.556L146.054 161.108C147.788 161.767 149.627 162.105 151.482 162.108C153.504 162.108 155.506 161.703 157.37 160.918C159.218 160.153 160.889 159.016 162.28 157.579C163.671 156.141 164.752 154.433 165.457 152.561L194.105 76.1106C194.81 74.2415 195.122 72.2474 195.022 70.2525C194.922 68.2576 194.413 66.3046 193.526 64.5151C191.808 60.9948 188.801 58.2707 185.129 56.908L58.2478 9.3463C56.5209 8.68692 54.6883 8.34816 52.8399 8.34668V8.35668Z" fill="white"/>
<path d="M68.244 22.6912L55.089 17.7631C53.6162 17.1666 51.9669 17.1789 50.5031 17.7974C49.0394 18.4159 47.8809 19.59 47.282 21.0618L18.6231 97.5124C18.1072 99.0157 18.2091 100.662 18.9063 102.09C19.6035 103.519 20.8391 104.612 22.3416 105.13L149.213 152.691C149.943 152.988 150.725 153.138 151.513 153.132C152.302 153.126 153.081 152.965 153.807 152.658C154.533 152.35 155.192 151.903 155.745 151.341C156.298 150.779 156.734 150.113 157.03 149.382L185.679 72.9719C185.94 72.2232 186.049 71.4303 186.002 70.6389C185.954 69.8475 185.75 69.0734 185.402 68.3614C185.053 67.6493 184.567 67.0134 183.971 66.4905C183.375 65.9676 182.682 65.568 181.93 65.3148L154.511 55.0288L68.244 22.6912Z" fill="white" stroke="black" stroke-width="8" stroke-linecap="round" stroke-linejoin="round"/>
<path d="M102.151 118.334C120.435 118.334 135.258 103.512 135.258 85.2271C135.258 66.9425 120.435 52.1199 102.151 52.1199C83.8661 52.1199 69.0435 66.9425 69.0435 85.2271C69.0435 103.512 83.8661 118.334 102.151 118.334Z" fill="white" stroke="black" stroke-width="8" stroke-linecap="round" stroke-linejoin="round"/>
<path d="M130.83 128.75L145.634 134.298" stroke="black" stroke-width="8" stroke-linecap="round" stroke-linejoin="round"/>
<path d="M37.1255 93.624L51.9398 99.1719" stroke="black" stroke-width="8" stroke-linecap="round" stroke-linejoin="round"/>
<path d="M73.4818 41.7039L58.6675 36.156" stroke="black" stroke-width="8" stroke-linecap="round" stroke-linejoin="round"/>
<path d="M167.176 76.8306L152.372 71.2727" stroke="black" stroke-width="8" stroke-linecap="round" stroke-linejoin="round"/>
<path d="M178.562 135.368C180.634 130.147 181.67 124.572 181.61 118.954L178.392 110.248L172.344 93.9238L178.392 110.248L172.344 93.9238C170.972 90.2146 170.999 86.1327 172.42 82.4419C173.84 78.7511 176.557 75.7043 180.061 73.8715C181.566 73.0818 183.321 72.9181 184.946 73.416C186.571 73.914 187.934 75.0333 188.738 76.5305L200.583 98.612L190.867 80.509L200.583 98.612C203.395 104.61 206.211 110.584 209.03 116.535C211.929 123.263 211.649 124.752 211.879 129.71C214.058 175.053 209.65 183.759 189.517 196.984" fill="white"/>
<path d="M178.562 135.368C180.634 130.147 181.67 124.572 181.61 118.954L178.392 110.248L172.344 93.9238L178.392 110.248L172.344 93.9238C170.972 90.2146 170.999 86.1327 172.42 82.4419C173.84 78.7511 176.557 75.7043 180.061 73.8715V73.8715C181.566 73.0818 183.321 72.9181 184.946 73.416C186.571 73.914 187.934 75.0333 188.738 76.5305L200.583 98.612L190.867 80.509L200.583 98.612C203.395 104.61 206.211 110.584 209.03 116.535C211.929 123.263 211.649 124.752 211.879 129.71C214.058 175.053 209.65 183.759 189.517 196.984" stroke="black" stroke-width="8" stroke-linecap="round" stroke-linejoin="round"/>
</svg>

<svg width="260" height="260" fill="none" xmlns="http://www.w3.org/2000/svg"><path d="m197.624 194.155 19.483 56.159M93.874 106.399 83.788 67.974a11.396 11.396 0 0 0-14.765-7.877v0a11.395 11.395 0 0 0-7.367 13.365c4.828 20.652 15.654 66.584 17.643 72.312 6.758 19.483 17.644 59.287 44.353 71.632l9.217 32.988" stroke="#000" stroke-width="8" stroke-linecap="round" stroke-linejoin="round"/><path d="m121.593 105.689-11.795-35.986-9.347-28.539a11.458 11.458 0 0 0-5.803-6.706 11.466 11.466 0 0 0-8.851-.561v0a11.466 11.466 0 0 0-7.327 13.715l9.236 35.256 8.317 31.698" stroke="#000" stroke-width="8" stroke-linecap="round" stroke-linejoin="round"/><path d="m144.504 88.826-24.83-67.704a12.255 12.255 0 0 0-15.524-7.347v0a12.246 12.246 0 0 0-7.617 15.384l13.775 42.084 9.596 29.298" stroke="#000" stroke-width="8" stroke-linecap="round" stroke-linejoin="round"/><path d="m171.934 83.968-3.899-8.997-21.751-49.91a11.817 11.817 0 0 0-14.715-6.448v0a11.829 11.829 0 0 0-7.227 15.244l11.726 31.988 11.335 30.908" stroke="#000" stroke-width="8" stroke-linecap="round" stroke-linejoin="round"/><path d="m130.83 128.75 14.804 5.548M37.126 93.624l14.814 5.548m21.542-57.468-14.815-5.548M167.176 76.83l-14.804-5.557" stroke="#fff" stroke-width="5" stroke-miterlimit="10"/><path d="M151.482 159.599a12.962 12.962 0 0 1-4.548-.83L20.062 111.217a12.816 12.816 0 0 1-6.997-6.357 11.998 11.998 0 0 1-.48-9.637l28.61-76.44a12.435 12.435 0 0 1 11.645-7.927c1.55.001 3.088.282 4.538.83l126.862 47.55a12.755 12.755 0 0 1 7.048 6.368 12.07 12.07 0 0 1 .479 9.616l-28.649 76.451a12.092 12.092 0 0 1-6.697 6.927 12.654 12.654 0 0 1-4.938 1Z" fill="#fff"/><path d="M52.84 13.355c1.25.004 2.488.23 3.658.67L183.37 61.576a10.257 10.257 0 0 1 5.667 5.118 9.568 9.568 0 0 1 .39 7.647l-28.649 76.451a9.613 9.613 0 0 1-5.328 5.508 10.258 10.258 0 0 1-3.998.799 10.451 10.451 0 0 1-3.669-.669l-126.79-47.552a10.324 10.324 0 0 1-5.669-5.118 9.595 9.595 0 0 1-.39-7.657l28.61-76.44a9.847 9.847 0 0 1 9.296-6.308Zm0-4.998a14.925 14.925 0 0 0-13.995 9.556l-28.649 76.44a14.554 14.554 0 0 0 .58 11.596 15.314 15.314 0 0 0 8.407 7.607l126.871 47.552c1.734.659 3.573.997 5.428 1 2.022 0 4.024-.405 5.888-1.19a14.614 14.614 0 0 0 8.087-8.357l28.648-76.45a14.56 14.56 0 0 0-.579-11.596 15.247 15.247 0 0 0-8.397-7.607L58.248 9.346a15.194 15.194 0 0 0-5.408-1v.01Z" fill="#fff"/><path d="m68.244 22.691-13.155-4.928a5.998 5.998 0 0 0-7.807 3.299l-28.659 76.45a5.997 5.997 0 0 0 3.719 7.618l126.871 47.561a5.984 5.984 0 0 0 4.594-.033 6.006 6.006 0 0 0 3.223-3.276l28.649-76.41a6.005 6.005 0 0 0-.277-4.61 6.002 6.002 0 0 0-3.472-3.047l-27.419-10.286L68.244 22.69Z" fill="#fff" stroke="#000" stroke-width="8" stroke-linecap="round" stroke-linejoin="round"/><path d="M102.151 118.334c18.284 0 33.107-14.822 33.107-33.107S120.435 52.12 102.151 52.12c-18.285 0-33.108 14.822-33.108 33.107s14.823 33.107 33.108 33.107Z" fill="#fff" stroke="#000" stroke-width="8" stroke-linecap="round" stroke-linejoin="round"/><path d="m130.83 128.75 14.804 5.548M37.126 93.624l14.814 5.548m21.542-57.468-14.815-5.548M167.176 76.83l-14.804-5.557" stroke="#000" stroke-width="8" stroke-linecap="round" stroke-linejoin="round"/><path d="M178.562 135.368a43.246 43.246 0 0 0 3.048-16.414l-3.218-8.706-6.048-16.324 6.048 16.324-6.048-16.324a16.263 16.263 0 0 1 7.717-20.052 6.447 6.447 0 0 1 8.677 2.659l11.845 22.081-9.716-18.103 9.716 18.103a4962.707 4962.707 0 0 0 8.447 17.923c2.899 6.728 2.619 8.217 2.849 13.175 2.179 45.343-2.229 54.049-22.362 67.274" fill="#fff"/><path d="M178.562 135.368a43.246 43.246 0 0 0 3.048-16.414l-3.218-8.706-6.048-16.324 6.048 16.324-6.048-16.324a16.263 16.263 0 0 1 7.717-20.052v0a6.447 6.447 0 0 1 8.677 2.659l11.845 22.081-9.716-18.103 9.716 18.103a4962.707 4962.707 0 0 0 8.447 17.923c2.899 6.728 2.619 8.217 2.849 13.175 2.179 45.343-2.229 54.049-22.362 67.274" stroke="#000" stroke-width="8" stroke-linecap="round" stroke-linejoin="round"/></svg>
